src/topics/icons/flannel.svg

<svg height="477" preserveAspectRatio="xMidYMid" viewBox="0 0 256 477" width="256" xmlns="http://www.w3.org/2000/svg"><path d="m71.3902254 220.44384h42.5040826c2.190642 0 3.967423-1.776725 3.967423-3.967296v-70.837138c0-52.4957085 42.70993-95.2042649 95.207325-95.2042649h28.333166c2.190642 0 3.967424-1.7767245 3.967424-3.9672957v-42.50054964c0-2.19057128-1.776782-3.96729576-3.967424-3.96729576h-28.335332c-80.308362 0-145.6440879 65.3336259-145.6440879 145.639406v70.837138c0 2.190571 1.7767816 3.967296 3.9674233 3.967296zm116.8905606-170.8515596c-6.33791 1.631553-12.43097 3.8719593-18.209844 6.6562165-7.226301 3.4819467-13.96507 7.8132543-20.088466 12.8660854-3.672738 3.0312653-7.124461 6.322539-10.327002 9.8456537-2.134304 2.3487431-4.158102 4.7993228-6.060558 7.345239-2.855852 3.8177909-5.443019 7.8500887-7.733334 12.0643925 2.290315-4.2164705 4.877482-8.2466016 7.733334-12.0643925 1.904623-2.5459162 3.926254-4.9964959 6.060558-7.345239 3.200374-3.5231147 6.652097-6.8143884 10.327002-9.8456537 6.123396-5.0528311 12.862165-9.3841387 20.088466-12.8660854 5.78104-2.7842572 11.871934-5.0268302 18.209844-6.6562165 7.921846-2.0388997 16.227217-3.1222683 24.786104-3.1222683-8.558887 0-16.864258 1.0833686-24.786104 3.1222683zm53.121436-45.62498464v42.50271634zm10.636855 151.87310824h-.010834-123.967352c-2.190642 0-3.967423 1.776725-3.967423 3.967296v42.502716c0 2.190572 1.776781 3.967296 3.967423 3.967296h115.997837c1.908956 0 3.547062-1.360711 3.898085-3.234938l7.930513-42.290377c.073671-.303343.112674-.61752.112674-.94253 0-2.192738-1.770281-3.969463-3.960923-3.969463zm-13.282526 70.837139h-.010834-39.847577c-2.190642 0-3.967424 1.776724-3.967424 3.967295v42.502717c0 2.190571 1.776782 3.967295 3.967424 3.967295h31.878062c1.908957 0 3.547063-1.360711 3.898085-3.234938l7.930513-42.290376c.073672-.301177.112674-.61752.112674-.942531 0-2.194905-1.770281-3.969462-3.960923-3.969462zm2.645671-155.8404047h-28.335332c-41.247335 0-74.804672 33.5562587-74.804672 74.8022677 0 2.190571 1.776781 3.967295 3.967423 3.967295h42.504083c2.190641 0 3.967423-1.776724 3.967423-3.967295 0-13.435938 10.93154-24.367127 24.367909-24.367127h28.333166c2.190642 0 3.967424-1.776724 3.967424-3.967295v-42.5005499c0-2.1905713-1.776782-3.9672958-3.967424-3.9672958zm-56.094295 69.0929147c.377025-1.843893.933894-3.622784 1.651107-5.31934-.717213 1.694389-1.274082 3.47328-1.651107 5.31934zm56.094295-22.625069h-28.335332c-8.80157 0-16.667079 4.012797-21.865248 10.311502 5.196003-6.296538 13.061511-10.311502 21.865248-10.311502h28.335332v-42.5027167zm-56.670665 95.204264h-42.504083c-2.190642 0-3.967423 1.776725-3.967423 3.967296v155.840404c0 25.428828-9.902307 49.338772-27.886804 67.320524-.743215.743191-1.161409 1.75289-1.161409 2.805925 0 1.053034.418194 2.060567 1.161409 2.805924l30.053611 30.052645c.77355.773525 1.789782 1.161371 2.806014 1.161371 1.016233 0 2.030298-.387846 2.803848-1.161371 27.50978-27.506728 42.657926-64.081252 42.657926-102.982851v-155.840404c.004334-2.192738-1.772448-3.969463-3.963089-3.969463zm-24.196732 239.017111c-5.091996 7.535912-10.890371 14.558307-17.299786 20.967516 6.409415-6.411376 12.20779-13.431604 17.299786-20.967516 2.545998-3.767956 4.916485-7.665916 7.096292-11.68088-2.181974 4.014964-4.550294 7.912924-7.096292 11.68088zm10.225161-17.788912c1.989129-4.129801 3.785412-8.370106 5.373681-12.71008-1.588269 4.339974-3.384552 8.580279-5.373681 12.71008zm-52.900421-146.425931c0-2.190572-1.776782-3.967296-3.967424-3.967296h-42.5019156c-2.1906417 0-3.9674233 1.776724-3.9674233 3.967296v85.003265c0 6.508879-2.535164 12.627745-7.1374617 17.232061-1.5492669 1.549217-1.5492669 4.060466 0 5.609683l30.0536106 30.052644c.7735501.773525 1.7897825 1.161371 2.8060149 1.161371s2.030298-.387846 2.8060148-1.161371c14.1297473-14.127126 21.9107503-32.912737 21.9107503-52.894388v-85.003265zm-20.1426367 130.062732c2.16464-2.623919 4.1451017-5.40601 5.9197167-8.326771-1.774615 2.920761-3.7550767 5.702852-5.9197167 8.326771zm9.1894277-14.348134c2.487494-5.161168 4.366116-10.67118 5.547025-16.434701-1.178742 5.763521-3.059531 11.273533-5.547025 16.434701zm25.121958-129.880726v-42.502716c0-2.190572-1.776781-3.967296-3.967423-3.967296h-116.1256781c-1.9089568 0-3.54706276 1.358544-3.89808547 3.234938l-7.9695155 42.502717c-.21668068 1.159204.0931727 2.35741.84722147 3.265273.75404878.907863 1.8721211 1.43438 3.05303082 1.43438h124.09302678c2.190642 0 3.967423-1.776725 3.967423-3.967296zm-114.7800908-66.869843h39.9732523c2.1906417 0 3.9674233-1.776724 3.9674233-3.967295v-42.50055c0-2.190571-1.7767816-3.967296-3.9674233-3.967296h-32.0037368c-1.9089568 0-3.5470627 1.360711-3.8980854 3.234939l-7.9695155 42.502716c-.2166807 1.159205.0931727 2.355243.8472214 3.265273.751882.907863 1.8721211 1.432213 3.050864 1.432213z" fill="#54a3da"/></svg>

<?xml version="1.0" encoding="UTF-8" standalone="no"?>
<svg width="256px" height="477px" viewBox="0 0 256 477" version="1.1" xmlns="http://www.w3.org/2000/svg" xmlns:xlink="http://www.w3.org/1999/xlink" preserveAspectRatio="xMidYMid">
    <g>
        <path d="M71.3902254,220.44384 L113.894308,220.44384 C116.08495,220.44384 117.861731,218.667115 117.861731,216.476544 L117.861731,145.639406 C117.861731,93.1436975 160.571661,50.4351411 213.069056,50.4351411 L241.402222,50.4351411 C243.592864,50.4351411 245.369646,48.6584166 245.369646,46.4678454 L245.369646,3.96729576 C245.369646,1.77672448 243.592864,0 241.402222,0 L213.06689,0 C132.758528,0 67.4228021,65.3336259 67.4228021,145.639406 L67.4228021,216.476544 C67.4228021,218.667115 69.1995837,220.44384 71.3902254,220.44384 L71.3902254,220.44384 Z M188.280786,49.5922804 C181.942876,51.2238334 175.849816,53.4642397 170.070942,56.2484969 C162.844641,59.7304436 156.105872,64.0617512 149.982476,69.1145823 C146.309738,72.1458476 142.858015,75.4371213 139.655474,78.960236 C137.52117,81.3089791 135.497372,83.7595588 133.594916,86.305475 C130.739064,90.1232659 128.151897,94.1555637 125.861582,98.3698675 C128.151897,94.153397 130.739064,90.1232659 133.594916,86.305475 C135.499539,83.7595588 137.52117,81.3089791 139.655474,78.960236 C142.855848,75.4371213 146.307571,72.1458476 149.982476,69.1145823 C156.105872,64.0617512 162.844641,59.7304436 170.070942,56.2484969 C175.851982,53.4642397 181.942876,51.2216667 188.280786,49.5922804 C196.202632,47.5533807 204.508003,46.4700121 213.06689,46.4700121 L213.06689,46.4700121 C204.508003,46.4700121 196.202632,47.5533807 188.280786,49.5922804 L188.280786,49.5922804 Z M241.402222,3.96729576 L241.402222,46.4700121 L241.402222,3.96729576 Z M252.039077,155.840404 L252.028243,155.840404 L128.060891,155.840404 C125.870249,155.840404 124.093468,157.617129 124.093468,159.8077 L124.093468,202.310416 C124.093468,204.500988 125.870249,206.277712 128.060891,206.277712 L244.058728,206.277712 C245.967684,206.277712 247.60579,204.917001 247.956813,203.042774 L255.887326,160.752397 C255.960997,160.449054 256,160.134877 256,159.809867 C256,157.617129 254.229719,155.840404 252.039077,155.840404 Z M238.756551,226.677543 L238.745717,226.677543 L198.89814,226.677543 C196.707498,226.677543 194.930716,228.454267 194.930716,230.644838 L194.930716,273.147555 C194.930716,275.338126 196.707498,277.11485 198.89814,277.11485 L230.776202,277.11485 C232.685159,277.11485 234.323265,275.754139 234.674287,273.879912 L242.6048,231.589536 C242.678472,231.288359 242.717474,230.972016 242.717474,230.647005 C242.717474,228.4521 240.947193,226.677543 238.756551,226.677543 Z M241.402222,70.8371383 L213.06689,70.8371383 C171.819555,70.8371383 138.262218,104.393397 138.262218,145.639406 C138.262218,147.829977 140.038999,149.606701 142.229641,149.606701 L184.733724,149.606701 C186.924365,149.606701 188.701147,147.829977 188.701147,145.639406 C188.701147,132.203468 199.632687,121.272279 213.069056,121.272279 L241.402222,121.272279 C243.592864,121.272279 245.369646,119.495555 245.369646,117.304984 L245.369646,74.8044341 C245.369646,72.6138628 243.592864,70.8371383 241.402222,70.8371383 Z M185.307927,139.930053 C185.684952,138.08616 186.241821,136.307269 186.959034,134.610713 C186.241821,136.305102 185.684952,138.083993 185.307927,139.930053 L185.307927,139.930053 Z M241.402222,117.304984 L213.06689,117.304984 C204.26532,117.304984 196.399811,121.317781 191.201642,127.616486 C196.397645,121.319948 204.263153,117.304984 213.06689,117.304984 L241.402222,117.304984 L241.402222,74.8022673 L241.402222,117.304984 Z M184.731557,212.509248 L142.227474,212.509248 C140.036832,212.509248 138.260051,214.285973 138.260051,216.476544 L138.260051,372.316948 C138.260051,397.745776 128.357744,421.65572 110.373247,439.637472 C109.630032,440.380663 109.211838,441.390362 109.211838,442.443397 C109.211838,443.496431 109.630032,444.503964 110.373247,445.249321 L140.426858,475.301966 C141.200408,476.075491 142.21664,476.463337 143.232872,476.463337 C144.249105,476.463337 145.26317,476.075491 146.03672,475.301966 C173.5465,447.795238 188.694646,411.220714 188.694646,372.319115 L188.694646,216.478711 C188.69898,214.285973 186.922198,212.509248 184.731557,212.509248 Z M160.534825,451.526359 C155.442829,459.062271 149.644454,466.084666 143.235039,472.493875 L143.235039,472.493875 C149.644454,466.082499 155.442829,459.062271 160.534825,451.526359 C163.080823,447.758403 165.45131,443.860443 167.631117,439.845479 C165.449143,443.860443 163.080823,447.758403 160.534825,451.526359 L160.534825,451.526359 Z M170.759986,433.737447 C172.749115,429.607646 174.545398,425.367341 176.133667,421.027367 C174.545398,425.367341 172.749115,429.607646 170.759986,433.737447 Z M117.859565,287.311516 C117.859565,285.120944 116.082783,283.34422 113.892141,283.34422 L71.3902254,283.34422 C69.1995837,283.34422 67.4228021,285.120944 67.4228021,287.311516 L67.4228021,372.314781 C67.4228021,378.82366 64.8876381,384.942526 60.2853404,389.546842 C58.7360735,391.096059 58.7360735,393.607308 60.2853404,395.156525 L90.338951,425.209169 C91.1125011,425.982694 92.1287335,426.37054 93.1449659,426.37054 C94.1611983,426.37054 95.1752639,425.982694 95.9509807,425.209169 C110.080728,411.082043 117.861731,392.296432 117.861731,372.314781 L117.861731,287.311516 L117.859565,287.311516 Z M97.7169283,417.374248 C99.8815683,414.750329 101.86203,411.968238 103.636645,409.047477 C101.86203,411.968238 99.8815683,414.750329 97.7169283,417.374248 L97.7169283,417.374248 Z M106.906356,403.026114 C109.39385,397.864946 111.272472,392.354934 112.453381,386.591413 C111.274639,392.354934 109.39385,397.864946 106.906356,403.026114 Z M132.028314,273.145388 L132.028314,230.642672 C132.028314,228.4521 130.251533,226.675376 128.060891,226.675376 L11.9352129,226.675376 C10.0262561,226.675376 8.38815014,228.03392 8.03712743,229.910314 L0.067611933,272.413031 C-0.149068749,273.572235 0.160784626,274.770441 0.914833401,275.678304 C1.66888218,276.586167 2.7869545,277.112684 3.96786422,277.112684 L128.060891,277.112684 C130.251533,277.112684 132.028314,275.335959 132.028314,273.145388 Z M17.2482232,206.275545 L57.2214755,206.275545 C59.4121172,206.275545 61.1888988,204.498821 61.1888988,202.30825 L61.1888988,159.8077 C61.1888988,157.617129 59.4121172,155.840404 57.2214755,155.840404 L25.2177387,155.840404 C23.3087819,155.840404 21.670676,157.201115 21.3196533,159.075343 L13.3501378,201.578059 C13.1334571,202.737264 13.4433105,203.933302 14.1973592,204.843332 C14.9492412,205.751195 16.0694803,206.275545 17.2482232,206.275545 Z" fill="#54A3DA"></path>
    </g>
</svg>
